reflection-app/data/resources/icons/scalable/status/document-text-symbolic.svg

<?xml version="1.0" encoding="UTF-8"?>
<svg xmlns="http://www.w3.org/2000/svg" height="16px" viewBox="0 0 16 16" width="16px"><g fill="#222222"><path d="m 9 2 v 5 h 4 v -1 z m -4 2 v 1 h 3 v -1 z m 0 2 v 1 h 3 v -1 z m 0 2 v 1 h 6 v -1 z m 0 2 v 1 h 6 v -1 z m 0 2 v 1 h 6 v -1 z m 0 0"/><path d="m 2 13 c 0 1.65625 1.34375 3 3 3 h 6 c 1.65625 0 3 -1.34375 3 -3 v -6 c 0 -0.90625 -0.359375 -1.773438 -1 -2.414062 l -2.585938 -2.585938 c -0.640624 -0.640625 -1.507812 -1 -2.414062 -1 h -3 c -1.65625 0 -3 1.34375 -3 3 z m 3 -10 h 3 c 0.375 0 0.734375 0.148438 1 0.414062 l 2.585938 2.585938 c 0.265624 0.265625 0.414062 0.625 0.414062 1 v 6 c 0 0.5625 -0.4375 1 -1 1 h -6 c -0.5625 0 -1 -0.4375 -1 -1 v -9 c 0 -0.5625 0.4375 -1 1 -1 z m 0 0"/></g></svg>

<svg xmlns="http://www.w3.org/2000/svg" width="16" height="16" viewBox="0 0 16 16"><g fill="#222"><path d="M9 2v5h4V6zM5 4v1h3V4zm0 2v1h3V6zm0 2v1h6V8zm0 2v1h6v-1zm0 2v1h6v-1zm0 0"/><path d="M2 13a3 3 0 0 0 3 3h6a3 3 0 0 0 3-3V7c0-.906-.36-1.773-1-2.414L10.414 2C9.774 1.36 8.906 1 8 1H5a3 3 0 0 0-3 3zM5 3h3c.375 0 .734.148 1 .414L11.586 6c.266.266.414.625.414 1v6c0 .563-.437 1-1 1H5c-.562 0-1-.437-1-1V4c0-.562.438-1 1-1m0 0"/></g></svg>
